packages/core/src/svgs/wallets/mono/sequence.svg

<svg width="24" height="24" viewBox="0 0 24 24" fill="none" xmlns="http://www.w3.org/2000/svg">
<path fill-rule="evenodd" clip-rule="evenodd" d="M2 16.6V7.4C2 5.52223 3.52223 4 5.4 4H18.6C20.4778 4 22 5.52223 22 7.4V16.6C22 18.4778 20.4778 20 18.6 20H5.4C3.52223 20 2 18.4778 2 16.6ZM7 8C7 7.44771 6.55228 7 6 7C5.44772 7 5 7.44771 5 8C5 8.55228 5.44772 9 6 9C6.55228 9 7 8.55228 7 8ZM7 15.9936C7 15.4414 6.55228 14.9937 6 14.9937C5.44772 14.9937 5 15.4414 5 15.9936C5 16.546 5.44772 16.9937 6 16.9937C6.55228 16.9937 7 16.546 7 15.9936ZM18 11C18.5523 11 19 11.4477 19 12C19 12.5523 18.5523 13 18 13C17.4477 13 17 12.5523 17 12C17 11.4477 17.4477 11 18 11ZM10 7H18C18.5523 7 19 7.44771 19 8C19 8.55228 18.5523 9 18 9H10C9.44773 9 9 8.55228 9 8C9 7.44771 9.44773 7 10 7ZM19 15.9936C19 15.4414 18.5523 14.9937 18 14.9937H10C9.44773 14.9937 9 15.4414 9 15.9936C9 16.546 9.44773 16.9937 10 16.9937H18C18.5523 16.9937 19 16.546 19 15.9936ZM6 11H14C14.5523 11 15 11.4477 15 12C15 12.5523 14.5523 13 14 13H6C5.44772 13 5 12.5523 5 12C5 11.4477 5.44772 11 6 11Z" fill="white"/>
</svg>

<svg xmlns="http://www.w3.org/2000/svg" width="24" height="24" fill="none" viewBox="0 0 24 24">
    <path fill="#fff" fill-rule="evenodd" d="M2 16.6V7.4A3.4 3.4 0 0 1 5.4 4h13.2A3.4 3.4 0 0 1 22 7.4v9.2a3.4 3.4 0 0 1-3.4 3.4H5.4A3.4 3.4 0 0 1 2 16.6M7 8a1 1 0 1 0-2 0 1 1 0 0 0 2 0m0 7.994a1 1 0 1 0-2 0 1 1 0 0 0 2 0M18 11a1 1 0 1 1 0 2 1 1 0 0 1 0-2m-8-4h8a1 1 0 1 1 0 2h-8a1 1 0 0 1 0-2m9 8.994a1 1 0 0 0-1-1h-8a1 1 0 1 0 0 2h8a1 1 0 0 0 1-1M6 11h8a1 1 0 1 1 0 2H6a1 1 0 1 1 0-2" clip-rule="evenodd"/>
</svg>
